X: 256
T: Ben Müptelâ Olsam Sana
C: Dede Efendi
O: Turkey
F: http://compmusic.upf.edu/node/140
N: ferahnak--sarki--aksak--ben_muptela--dede_efendi
N: makam= ferahnak
N: form= sarki
N: usul= aksak = 9/8
M: 9/8
L: 1/16
K: C ^f ^c  
Q: 1/4=156
%%MIDI tuningsystem comma53
d6e2 f3e d6 | g3f^e2 g2f2 e2f4z2  | f2a2 ^g2a2 f2a2 g2a2 f2 | 
w:  Ben  *  müp  |  te *  *  *  lâ   |  ol *  *  *  sam   | 
g3f^e2 g2f3=ed4z2  | d6e2 f3e d6 | g3f^e2 g2f2 e2f4z2  | 
w:  sa *  *  *  na    |  Ben  *  müp  |  te *  *  *  lâ   | 
f2a2 ^g2a2 f2a2 g2a2 f2 | g3f^e2 g2f3=ed4z2  | \
w:  ol *  *  *  sam   |  sa *  *  *  na    | 
b2a2 g2f2 e4 d4 c2 | 
w:  Gü *  *  *  ler   | 
d2 g2f2 e2d2 =c2B4A2  | G2B2 A2B2 G2B2 A4 F2 | \
w:  miy *  *  *  din   |  son *  *  *  ra   | 
G3F^E2 G2F2 E2F4z2  | 
w:  ba *  *  *  na    | 
b2a2 g2f2 e4 d4 c2 | d2 g2f2 e2d2 =c2B4A2  | \
w:  Gü *  *  *  ler   |  miy *  *  *  din   | 
G2B2 A2B2 G2B2 A4 F2 | 
w:  son *  *  *  ra   | 
G3F^E2 G2F2 E2F4z2  | a8 ^g8-^g2 | a2 _7/8bc'b2 a2a2 ^g2a4z2  | \
w:  ba *  *  *  na    |  Ha li  |  niz *  *  *  *  dir   | 
d2e2 f2g2 a2g2 =c'2b2 a2 | 
w:  ku *  *  *  zum   | 
a2 g4 f2f3ed4z2  | a8 ^g8-^g2 | a2 _7/8bc'b2 a2a2 ^g2a4z2  | \
w:  zî *  *  râ    |  Ha li  |  niz *  *  *  *  dir   | 
d2e2 f2g2 a2g2 =c'2b2 a2 | 
w:  ku *  *  *  zum   | 
a2 g4 f2f3ed4z2  | b2a2 g2f2 e4 d4 c2 | \
w:  zî *  *  râ    |  Gü *  *  *  ler   | 
d2 g2f2 e2d2 =c2B4A2  | 
w:  miy *  *  *  din   | 
G2B2 A2B2 G2B2 A4 F2 | G3F^E2 G2F2 E2F4z2  | \
w:  son *  *  *  ra   |  ba *  *  *  na    | 
b2a2 g2f2 e4 d4 c2 | 
w:  Gü *  *  *  ler   | 
d2 g2f2 e2d2 =c2B4A2  | G2B2 A2B2 G2B2 A4 F2 | \
w:  miy *  *  *  din   |  son *  *  *  ra   | 
G3F^E2 G2F2 E2F4z2  | 
w:  ba *  *  *  na    | 
d6e2 f3e d6 | g3f^e2 g2f2 e2f4z2  | f2a2 ^g2a2 f2a2 g2a2 f2 | 
w:  Ben  *  müp  |  te *  *  *  lâ   |  ol *  *  *  sam   | 
g3f^e2 g2f3=ed4z2  | d6e2 f3e d6 | g3f^e2 g2f2 e2f4z2  | 
w:  sa *  *  *  na    |  Ben  *  müp  |  te *  *  *  lâ   | 
f2a2 ^g2a2 f2a2 g2a2 f2 | g3f^e2 g2f3=ed4z2  | \
w:  ol *  *  *  sam   |  sa *  *  *  na    | 
b2a2 g2f2 e4 d4 c2 | 
w:  Gü *  *  *  ler   | 
d2 g2f2 e2d2 =c2B4A2  | G2B2 A2B2 G2B2 A4 F2 | \
w:  miy *  *  *  din   |  son *  *  *  ra   | 
G3F^E2 G2F2 E2F4z2  | 
w:  ba *  *  *  na    | 
b2a2 g2f2 e4 d4 c2 | d2 g2f2 e2d2 =c2B4A2  | \
w:  Gü *  *  *  ler   |  miy *  *  *  din   | 
G2B2 A2B2 G2B2 A4 F2 | 
w:  son *  *  *  ra   | 
G3F^E2 G2F2 E2F4z2  | a8 ^g8-^g2 | a2 _7/8bc'b2 a2a2 ^g2a4z2  | \
w:  ba *  *  *  na    |  Ha li  |  niz *  *  *  *  dir   | 
d2e2 f2g2 a2g2 =c'2b2 a2 | 
w:  ku *  *  *  zum   | 
a2 g4 f2f3ed4z2  | a8 ^g8-^g2 | a2 _7/8bc'b2 a2a2 ^g2a4z2  | \
w:  zî *  *  râ    |  Ha li  |  niz *  *  *  *  dir   | 
d2e2 f2g2 a2g2 =c'2b2 a2 | 
w:  ku *  *  *  zum   | 
a2 g4 f2f3ed4z2  | b2a2 g2f2 e4 d4 c2 | \
w:  zî *  *  râ    |  Gü *  *  *  ler   | 
d2 g2f2 e2d2 =c2B4A2  | 
w:  miy *  *  *  din   | 
G2B2 A2B2 G2B2 A4 F2 | G3F^E2 G2F2 E2F4z2  | \
w:  son *  *  *  ra   |  ba *  *  *  na    | 
b2a2 g2f2 e4 d4 c2 | 
w:  Gü *  *  *  ler   | 
d2 g2f2 e2d2 =c2B4A2  | G2B2 A2B2 G2B2 A4 F2 | \
w:  miy *  *  *  din   |  son *  *  *  ra   | 
G3F^E2 G2F2 E2F4z2  | 
w:  ba *  *  *  na    | 
|


